X: 27231
T: Miss Sarah Drummond Of Perth
R: strathspey
M: 4/4
K: Amixolydian
|:e<a|"A"e<Ae>d "Em"((3Bcd) e2|"G"d<gB>g d>gB>G|"A"A/A/A e>d "Em"((3Bcd) e>g|"A"{g}a>e"G"g<B [1 "A"[A2A2]:|
((3ef^g)|"A"a2 e>a c>ae>f|"G"g/g/g d>g B>gd>g|"A"a2 e>a c>ae>g|"A"{g}a>e"G"g<B "A"[A2A2] ((3ef^g)|
"A"a2 e>a c>ae>f|"G"g/g/g d>g B>gd>g|"A"a>ge>a "G"g>ed>g|"A"{g}a>e"G"g<B "A"[A2A2]||

